X: 17840
T: Horizontigo
R: polka
M: 2/4
K: Fmajor
f>(e e/)c/a/b/|c'b/a/ ga|e/e/e/(f/ f/)c/f/g/|ag/f/ e/d/c/A/|
B>A B/d/c/A/|F>E F/A/G/E/|1 C>D E/G/A:|2 (C4|C)/B,/C/D/ (3E/F/G/ A/F/ ]|
B>(A A/)F/B/c/|dc/B/ B/A/B/G/|c>(B B/)G/c/d/|ed/c/ A/B/c/d/|
f>(e e/)c/f/g/|a>(f/ f/)e/c/A/|B>A B/d/c/A/|B>A B/d/c/A/|F>E F/A/G/E/|C/B,/C/D/ (3E/F/G/ A/F/|
B>(A A/)F/B/c/|dc/B/ B/A/B/G/|c>(B B/)B/e/f/|gf/e/ dc/e/|
f>(e e/)c/f/g/|a>(f f/)e/c/A/|B>A B/d/c/A/|F>E F/A/G/E/|C>D E/G/A||

